X:7069
T:The Mason's Apron
O:england
C:Trad
R:Reel
M:4/4
K:A
L:1/8
ed | cAAA ABAF | EFAB dcBA | dBBB BcBA | Bcde gfed | cAAA ABAF |
EFAB dcBA | Bcde fefa |1 edcB  A2 ed :|2 edcB A2 AB |
|: cA eA fAeA | cA eA fedc | dB fB gBfB | dB fB gfed | cA eA fAeA |
cA eA fedc | Bcde fefa |1 edcB A2 AB :|2 edcB A3 e |
|: aeee fece | aeee fece | bfff gfdf | bfff gfdf | aeee fece |
aeee fedc | Bcde fefa |1 edcB A3 e :|2 edcB A2 AB |
|: c2 ec fcec | c2 ec fcec | d2 fd gdfd | d2 fd gfed | c2 ec fcec |
c2 ec fedc | Bcde fefa |1 edcB A2 AB :|2 edcB A ||


